assets/results/sencha.svg

<svg width="267" height="143" viewBox="0 0 267 143" fill="none" xmlns="http://www.w3.org/2000/svg">
<g clip-path="url(#clip0_67_265)">
<path d="M151.71 17.09C151.71 19.93 148.04 22.59 141.63 24.88C128.63 29.53 104.38 32.66 76.63 32.66C48.88 32.66 24.63 29.53 11.63 24.88C5.17 22.59 1.5 19.93 1.5 17.09C1.5 8.48 35.12 1.5 76.6 1.5C118.08 1.5 151.71 8.48 151.71 17.09Z" stroke="#EEEEEE" stroke-width="3" stroke-miterlimit="10"/>
<path d="M141.63 24.88C128.63 29.53 104.38 32.66 76.63 32.66C48.88 32.66 24.63 29.53 11.63 24.88C24.63 20.22 48.88 17.09 76.63 17.09C104.38 17.09 128.64 20.22 141.63 24.88Z" stroke="#EEEEEE" stroke-width="3" stroke-miterlimit="10"/>
<path d="M151.7 17.08V76.74C151.703 85.1778 150.043 93.5334 146.816 101.33C143.589 109.126 138.857 116.21 132.892 122.177C126.926 128.145 119.843 132.878 112.048 136.108C104.253 139.338 95.8978 141 87.46 141H65.75C57.3114 141.001 48.9551 139.34 41.1587 136.111C33.3623 132.882 26.2785 128.148 20.3119 122.181C14.3454 116.213 9.61301 109.129 6.3852 101.332C3.15739 93.5351 1.49738 85.1786 1.5 76.74V17.08" stroke="#EEEEEE" stroke-width="3" stroke-miterlimit="10"/>
<path d="M173.51 87C174.489 88.9701 175.257 91.0383 175.8 93.17C173.4 92.01 172.07 90.73 172.07 89.39C172.115 88.9089 172.267 88.4442 172.517 88.0303C172.766 87.6165 173.106 87.2643 173.51 87Z" stroke="#EEEEEE" stroke-width="3" stroke-miterlimit="10"/>
<path d="M212.71 79.87C213.94 79.87 215.18 79.81 216.45 79.8C215.7 82.5033 215.215 85.273 215 88.07C214.26 85.35 213.48 82.47 212.71 79.87Z" stroke="#EEEEEE" stroke-width="3" stroke-miterlimit="10"/>
<path d="M230.24 98.6901C227.12 98.8701 223.87 98.9701 220.53 99.0001C218.65 92.3101 219.61 85.5801 221.53 79.8101C223.98 79.8101 226.38 79.9201 228.7 80.0301C228.28 85.5501 228.26 93.0001 230.24 98.6901Z" stroke="#EEEEEE" stroke-width="3" stroke-miterlimit="10"/>
<path d="M239.4 80.84C239.96 85.63 240.69 91.51 240.85 97.84C238.75 98.08 236.55 98.29 234.27 98.46C231.8 93.46 232.34 85.91 233.27 80.33C235.383 80.4633 237.427 80.6333 239.4 80.84Z" stroke="#EEEEEE" stroke-width="3" stroke-miterlimit="10"/>
<path d="M243.86 81.38L245.22 81.56C244.876 82.4903 244.68 83.4689 244.64 84.46C244.36 83.43 244.1 82.39 243.86 81.38Z" stroke="#EEEEEE" stroke-width="3" stroke-miterlimit="10"/>
<path d="M256.38 83.89C254.77 87.95 253.19 92.8 253.43 95.69C251.16 96.23 248.6 96.69 245.79 97.15C246.311 95.5723 246.469 93.8971 246.25 92.25C246.25 92.1 246.25 91.95 246.25 91.8C246.09 88.94 247.44 85.44 249.17 82.21C251.602 82.6395 254.009 83.2004 256.38 83.89Z" stroke="#EEEEEE" stroke-width="3" stroke-miterlimit="10"/>
<path d="M264.74 89.4C264.74 91.17 262.41 92.84 258.33 94.27C258.651 91.2035 259.322 88.1839 260.33 85.27C263.17 86.55 264.74 87.94 264.74 89.4Z" stroke="#EEEEEE" stroke-width="3" stroke-miterlimit="10"/>
<path d="M264.74 130.71C264.74 136.02 243.99 140.32 218.4 140.32C192.81 140.32 172.06 136.02 172.06 130.71" stroke="#EEEEEE" stroke-width="3" stroke-miterlimit="10"/>
<path d="M172.07 130.71V104.43V101.88V89.4" stroke="#EEEEEE" stroke-width="3" stroke-miterlimit="10"/>
<path d="M264.74 130.71V104.43V101.88V89.4" stroke="#EEEEEE" stroke-width="3" stroke-miterlimit="10"/>
<path d="M181.64 95.25C181.05 95.1 180.5 94.93 179.96 94.77C178.536 94.3441 177.145 93.8126 175.8 93.18C175.257 91.0448 174.49 88.9733 173.51 87C172.16 84 170.37 80.56 168.51 77.14C167.63 75.51 166.74 73.89 165.88 72.35C162.55 66.35 159.67 61.56 159.67 61.56L163.9 59C166.164 61.3925 168.147 64.0364 169.81 66.88C170.41 67.88 170.91 68.88 171.35 69.76C172.17 71.45 172.78 73 173.44 74.6C174.138 76.3591 174.926 78.0813 175.8 79.76C176.624 81.3581 177.358 83.0006 178 84.68C178 84.68 178 84.77 178 84.8C178.005 84.8162 178.005 84.8338 178 84.85C179.88 89.61 181.54 95 181.64 95.25Z" stroke="#EEEEEE" stroke-width="3" stroke-miterlimit="10"/>
<path d="M165.9 72.36L158 75.35V81.26L168.52 77.15" stroke="#EEEEEE" stroke-width="3" stroke-miterlimit="10"/>
<path d="M199.6 98.1799C195.053 97.7868 190.531 97.156 186.05 96.2899C185.61 94.9999 183.7 89.2899 182.19 83.4099C183.38 83.0899 184.66 82.7999 186.02 82.5199C184.72 77.6399 183.59 72.3599 183.59 72.3599L180.29 73.0999L176.98 73.8399L173.44 74.6299C172.78 73.0299 172.17 71.4799 171.35 69.7899C171.35 69.7899 173.65 69.1699 176.48 68.5199C177.69 68.2399 179 67.9599 180.27 67.7199C183 67.1899 185.52 66.8599 186.41 67.1899C187.92 67.7599 190.06 75.6699 192.15 81.4899C193.15 84.3499 194.15 86.6999 195.15 87.4899C197.94 89.6899 199.6 98.1799 199.6 98.1799Z" stroke="#EEEEEE" stroke-width="3" stroke-miterlimit="10"/>
<path d="M186.05 96.29C184.46 95.96 182.99 95.62 181.64 95.29C181.54 94.99 179.88 89.65 178.03 84.91C178.035 84.8938 178.035 84.8763 178.03 84.86C178.03 84.86 178.03 84.79 178.03 84.74C177.64 83.58 175.64 77.37 177.03 73.9L180.34 73.16C180.659 76.6473 181.295 80.0982 182.24 83.47C183.7 89.26 185.61 95 186.05 96.29Z" stroke="#EEEEEE" stroke-width="3" stroke-miterlimit="10"/>
<path d="M186 82.52C187 86.41 188.17 90.04 188.92 90.52C190.61 91.64 192.52 97.35 192.52 97.35" stroke="#EEEEEE" stroke-width="3" stroke-miterlimit="10"/>
<path d="M180.29 73.1C180.29 72.84 180.29 72.6 180.29 72.36" stroke="#EEEEEE" stroke-width="3" stroke-miterlimit="10"/>
<path d="M186.14 96.56L186.05 96.29" stroke="#EEEEEE" stroke-width="3" stroke-miterlimit="10"/>
<path d="M176.48 68.53C175.962 65.2339 174.951 62.0347 173.48 59.04L178 57.35L180.23 67.72" stroke="#EEEEEE" stroke-width="3" stroke-miterlimit="10"/>
<path d="M210.74 57.91C210.74 57.91 210.11 63.9101 209.45 71.3701C209.2 74.1301 208.95 77.09 208.73 80C208.01 89.2701 207.56 98.1 208.35 98.78C205.35 98.64 202.35 98.44 199.6 98.18C199.6 98.18 197.94 89.6901 195.13 87.4401C194.2 86.7001 193.18 84.3501 192.13 81.4401C193.13 81.3001 194.13 81.1601 195.13 81.0401C197.98 80.7001 201.04 80.41 204.25 80.2C204.33 78.26 204.45 76.3 204.57 74.39C205.17 65.26 206.07 57.3 206.07 57.3L210.74 57.91Z" stroke="#EEEEEE" stroke-width="3" stroke-miterlimit="10"/>
<path d="M204.85 98.18C203.98 94.34 203.96 87.37 204.28 80.25" stroke="#EEEEEE" stroke-width="3" stroke-miterlimit="10"/>
<path d="M217.63 99C216.25 99 214.89 99 213.54 99C211.78 99 210.04 98.9 208.35 98.82C207.56 98.14 208.01 89.31 208.73 80.04C208.95 77.13 209.2 74.17 209.45 71.41C210.33 72.52 211.51 75.89 212.7 79.91C213.47 82.51 214.25 85.39 214.96 88.11C216.44 93.75 217.58 98.73 217.63 99Z" stroke="#EEEEEE" stroke-width="3" stroke-miterlimit="10"/>
<path d="M213.54 99C210.54 88.58 210.38 83 208.73 80" stroke="#EEEEEE" stroke-width="3" stroke-miterlimit="10"/>
<path d="M205.15 67.06C202.92 63.12 199.59 55.76 199.59 55.76L194.2 58.14C194.2 58.14 201.9 67.99 204.59 74.44" stroke="#EEEEEE" stroke-width="3" stroke-miterlimit="10"/>
<path d="M221.53 79.8099C219.61 85.5799 218.65 92.3099 220.53 98.9999H217.63C217.63 98.7299 216.44 93.7499 214.97 88.0799C215.195 85.2819 215.69 82.5122 216.45 79.8099C218.43 72.9266 221.466 66.3922 225.45 60.4399L230.23 63.5799C226.455 68.4736 223.516 73.9575 221.53 79.8099Z" stroke="#EEEEEE" stroke-width="3" stroke-miterlimit="10"/>
<path d="M220.53 99.01V99" stroke="#EEEEEE" stroke-width="3" stroke-miterlimit="10"/>
<path d="M234.27 98.43C232.96 98.53 231.61 98.62 230.27 98.69C228.27 92.99 228.27 85.55 228.73 80.03C229.07 75.56 229.67 72.36 229.67 72.36L234.9 72.98C234.229 75.3885 233.692 77.8322 233.29 80.3C232.34 85.88 231.8 93.44 234.27 98.43Z" stroke="#EEEEEE" stroke-width="3" stroke-miterlimit="10"/>
<path d="M243.09 74.44C242.986 76.7793 243.245 79.1205 243.86 81.38C244.1 82.38 244.36 83.43 244.64 84.46C245.32 86.8704 245.845 89.3222 246.21 91.8C246.21 91.95 246.21 92.1 246.21 92.25C246.429 93.8971 246.271 95.5724 245.75 97.15C244.18 97.39 242.53 97.61 240.81 97.81C240.65 91.51 239.92 85.63 239.36 80.81C238.862 77.679 238.644 74.5097 238.71 71.34C239.16 66.83 243.64 60.4 243.64 60.4L249.21 64C247.529 65.228 246.118 66.7883 245.065 68.5843C244.013 70.3802 243.34 72.3734 243.09 74.44Z" stroke="#EEEEEE" stroke-width="3" stroke-miterlimit="10"/>
<path d="M255.78 72.36C253.273 75.4377 251.047 78.7342 249.13 82.21C247.4 85.44 246.05 88.94 246.21 91.8C245.845 89.3222 245.32 86.8704 244.64 84.46C244.68 83.4689 244.876 82.4903 245.22 81.56C246.95 76.38 252.05 69.4 252.05 69.4L255.78 72.36Z" stroke="#EEEEEE" stroke-width="3" stroke-miterlimit="10"/>
<path d="M263.25 78.37C262.123 80.6118 261.157 82.931 260.36 85.31C259.352 88.2239 258.681 91.2435 258.36 94.31C257.89 94.48 257.36 94.64 256.87 94.8C255.87 95.12 254.69 95.43 253.46 95.73C253.22 92.84 254.8 87.99 256.41 83.93C257.97 80.02 259.55 76.85 259.55 76.85L263.25 78.37Z" stroke="#EEEEEE" stroke-width="3" stroke-miterlimit="10"/>
</g>
<defs>
<clipPath id="clip0_67_265">
<rect width="266.24" height="142.49" fill="white"/>
</clipPath>
</defs>
</svg>

<svg xmlns="http://www.w3.org/2000/svg" viewBox="0 0 266.24 142.49"><defs><style>.cls-1{fill:none;stroke:#1f1f1f;stroke-miterlimit:10;stroke-width:3px;}</style></defs><g id="Layer_2" data-name="Layer 2"><g id="Layer_1-2" data-name="Layer 1"><path class="cls-1" d="M151.71,17.09c0,2.84-3.67,5.5-10.08,7.79-13,4.65-37.25,7.78-65,7.78s-52-3.13-65-7.78C5.17,22.59,1.5,19.93,1.5,17.09,1.5,8.48,35.12,1.5,76.6,1.5S151.71,8.48,151.71,17.09Z"/><path class="cls-1" d="M141.63,24.88c-13,4.65-37.25,7.78-65,7.78s-52-3.13-65-7.78c13-4.66,37.25-7.79,65-7.79S128.64,20.22,141.63,24.88Z"/><path class="cls-1" d="M151.7,17.08V76.74A64.24,64.24,0,0,1,87.46,141H65.75A64.24,64.24,0,0,1,1.5,76.74V17.08"/><path class="cls-1" d="M173.51,87a31.16,31.16,0,0,1,2.29,6.17c-2.4-1.16-3.73-2.44-3.73-3.78A3.21,3.21,0,0,1,173.51,87Z"/><path class="cls-1" d="M212.71,79.87c1.23,0,2.47-.06,3.74-.07A43.38,43.38,0,0,0,215,88.07C214.26,85.35,213.48,82.47,212.71,79.87Z"/><path class="cls-1" d="M230.24,98.69c-3.12.18-6.37.28-9.71.31-1.88-6.69-.92-13.42,1-19.19,2.45,0,4.85.11,7.17.22C228.28,85.55,228.26,93,230.24,98.69Z"/><path class="cls-1" d="M239.4,80.84c.56,4.79,1.29,10.67,1.45,17-2.1.24-4.3.45-6.58.62-2.47-5-1.93-12.55-1-18.13Q236.44,80.53,239.4,80.84Z"/><path class="cls-1" d="M243.86,81.38l1.36.18a9.47,9.47,0,0,0-.58,2.9C244.36,83.43,244.1,82.39,243.86,81.38Z"/><path class="cls-1" d="M256.38,83.89c-1.61,4.06-3.19,8.91-2.95,11.8-2.27.54-4.83,1-7.64,1.46a11,11,0,0,0,.46-4.9c0-.15,0-.3,0-.45-.16-2.86,1.19-6.36,2.92-9.59A68.48,68.48,0,0,1,256.38,83.89Z"/><path class="cls-1" d="M264.74,89.4c0,1.77-2.33,3.44-6.41,4.87a40.41,40.41,0,0,1,2-9C263.17,86.55,264.74,87.94,264.74,89.4Z"/><path class="cls-1" d="M264.74,130.71c0,5.31-20.75,9.61-46.34,9.61s-46.34-4.3-46.34-9.61"/><polyline class="cls-1" points="172.07 130.71 172.07 104.43 172.07 101.88 172.07 89.4"/><polyline class="cls-1" points="264.74 130.71 264.74 104.43 264.74 101.88 264.74 89.4"/><path class="cls-1" d="M181.64,95.25c-.59-.15-1.14-.32-1.68-.48a29.91,29.91,0,0,1-4.16-1.59A31.16,31.16,0,0,0,173.51,87c-1.35-3-3.14-6.44-5-9.86-.88-1.63-1.77-3.25-2.63-4.79-3.33-6-6.21-10.79-6.21-10.79L163.9,59a43.15,43.15,0,0,1,5.91,7.88c.6,1,1.1,2,1.54,2.88.82,1.69,1.43,3.24,2.09,4.84a55.56,55.56,0,0,0,2.36,5.16A48.69,48.69,0,0,1,178,84.68s0,0,0,0,0,.09,0,.12a.08.08,0,0,1,0,.05C179.88,89.61,181.54,95,181.64,95.25Z"/><path class="cls-1" d="M181.64,95.26h0"/><polyline class="cls-1" points="165.9 72.36 158 75.35 158 81.26 168.52 77.15"/><path class="cls-1" d="M199.6,98.18a130.75,130.75,0,0,1-13.55-1.89c-.44-1.29-2.35-7-3.86-12.88,1.19-.32,2.47-.61,3.83-.89-1.3-4.88-2.43-10.16-2.43-10.16l-3.3.74-3.31.74-3.54.79c-.66-1.6-1.27-3.15-2.09-4.84,0,0,2.3-.62,5.13-1.27,1.21-.28,2.52-.56,3.79-.8,2.73-.53,5.25-.86,6.14-.53,1.51.57,3.65,8.48,5.74,14.3,1,2.86,2,5.21,3,6C197.94,89.69,199.6,98.18,199.6,98.18Z"/><path class="cls-1" d="M186.05,96.29c-1.59-.33-3.06-.67-4.41-1-.1-.3-1.76-5.64-3.61-10.38a.08.08,0,0,0,0-.05s0-.07,0-.12,0,0,0,0c-.39-1.16-2.39-7.37-1-10.84l3.31-.74a57.64,57.64,0,0,0,1.9,10.31C183.7,89.26,185.61,95,186.05,96.29Z"/><path class="cls-1" d="M186,82.52c1,3.89,2.17,7.52,2.92,8,1.69,1.12,3.6,6.83,3.6,6.83"/><path class="cls-1" d="M180.29,73.1c0-.26,0-.5,0-.74"/><path class="cls-1" d="M186.14,96.56l-.09-.27"/><path class="cls-1" d="M176.48,68.53a33.22,33.22,0,0,0-3-9.49L178,57.35l2.23,10.37"/><path class="cls-1" d="M210.74,57.91s-.63,6-1.29,13.46c-.25,2.76-.5,5.72-.72,8.63-.72,9.27-1.17,18.1-.38,18.78-3-.14-6-.34-8.75-.6,0,0-1.66-8.49-4.47-10.74-.93-.74-1.95-3.09-3-6,1-.14,2-.28,3-.4,2.85-.34,5.91-.63,9.12-.84.08-1.94.2-3.9.32-5.81.6-9.13,1.5-17.09,1.5-17.09Z"/><path class="cls-1" d="M204.85,98.18c-.87-3.84-.89-10.81-.57-17.93"/><path class="cls-1" d="M217.63,99c-1.38,0-2.74,0-4.09,0-1.76,0-3.5-.1-5.19-.18-.79-.68-.34-9.51.38-18.78.22-2.91.47-5.87.72-8.63.88,1.11,2.06,4.48,3.25,8.5h0c.77,2.6,1.55,5.48,2.26,8.2h0C216.44,93.75,217.58,98.73,217.63,99Z"/><path class="cls-1" d="M217.64,99h0"/><path class="cls-1" d="M213.54,99c-3-10.42-3.16-16-4.81-19"/><path class="cls-1" d="M205.15,67.06c-2.23-3.94-5.56-11.3-5.56-11.3l-5.39,2.38s7.7,9.85,10.39,16.3"/><path class="cls-1" d="M221.53,79.81c-1.92,5.77-2.88,12.5-1,19.19h-2.9c0-.27-1.19-5.25-2.66-10.92h0a43.38,43.38,0,0,1,1.48-8.27,69.24,69.24,0,0,1,9-19.37l4.78,3.14A56.08,56.08,0,0,0,221.53,79.81Z"/><line class="cls-1" x1="220.53" y1="99.01" x2="220.53" y2="99"/><path class="cls-1" d="M234.27,98.43c-1.31.1-2.66.19-4,.26-2-5.7-2-13.14-1.54-18.66.34-4.47.94-7.67.94-7.67l5.23.62a68,68,0,0,0-1.61,7.32C232.34,85.88,231.8,93.44,234.27,98.43Z"/><path class="cls-1" d="M243.09,74.44a22.61,22.61,0,0,0,.77,6.94c.24,1,.5,2.05.78,3.08a58.33,58.33,0,0,1,1.57,7.34c0,.15,0,.3,0,.45a11,11,0,0,1-.46,4.9c-1.57.24-3.22.46-4.94.66-.16-6.3-.89-12.18-1.45-17a53.21,53.21,0,0,1-.65-9.47c.45-4.51,4.93-10.94,4.93-10.94L249.21,64A15.19,15.19,0,0,0,243.09,74.44Z"/><path class="cls-1" d="M255.78,72.36a66.3,66.3,0,0,0-6.65,9.85c-1.73,3.23-3.08,6.73-2.92,9.59a58.33,58.33,0,0,0-1.57-7.34,9.47,9.47,0,0,1,.58-2.9c1.73-5.18,6.83-12.16,6.83-12.16Z"/><path class="cls-1" d="M263.25,78.37a52.87,52.87,0,0,0-2.89,6.94,40.41,40.41,0,0,0-2,9c-.47.17-1,.33-1.49.49-1,.32-2.18.63-3.41.93-.24-2.89,1.34-7.74,2.95-11.8,1.56-3.91,3.14-7.08,3.14-7.08Z"/></g></g></svg>
